X:1
T:Memories of Earth
T:James McGranahan
T:Memories of Earth
T:Public Domain
T:Public Domain
T:Public Domain
C:James McGranahan
Z:Public Domain
%%score ( 1 2 ) ( 3 4 )
L:1/8
M:3/4
K:G
V:1 treble 
V:2 treble 
V:3 bass 
V:4 bass 
V:1
 [B,D]>[B,G] | [DB]3 [Ec]<[DB][CA]/ x/ | [B,G]2 [B,D]2 (3(B,D)G | [Bd]3 [ce]<[Bd][Ac]/ x/ | %4
w: 1.~When we|reach our Fa- ther’s|dwell- ing, On * the|ter- nal hills, And|
w: 2.~When the|paths of prayer and|du- ty, And * af-|all are trod, And|
w: 3.~And the|way by which He|brought us, All * the|that He bore, All|
 [GB]4 [GB]>[GB] | [Ac]3 [^GB]<[Ac][GB]/ x/ | [Ac]2 [FA]2 [GB]>[Ac] | [Bd]3 [^A^c]<[Bd][Ac]/ x/ | %8
w: our praise to|Him is swell- ing|Who the vast cre-|a- tion fills, Shall|
w: we wake and|see the beau- ty|Of our Sav- ior|and our God, Shall|
w: the pa- tient|love that taught us,|We’ll re- mem- ber|ev- er- more, And|
 [Bd]4 [Bd]>[Ac] | [GB]3 [Ec]<[DB][CA]/ x/ | [B,G]2 [B,D]2 (3(GD)G | [Bd]3 [ce]<[Bd][Ac]/ x/ | %12
w: we then re-|call the sad- ness,|And the clouds * that|dim, When our hearts|
w: we then re-|call the sto- ry|Of our mor- * tal|tears, When on earth|
w: His rest will|be the dear- er,|As we think * of|ways, And His light|
 [GB]4 [DB]>[DB] | [Ec]3 [Fd]<[Ge][Ec]/ x/ | ([GB]>[Ac]) [Bd]2 [Bd]>[GB] | %15
w: were turned from|hard- ness, And our|feet * from paths of|
w: we sought the|glo- ry Wrest- ling|oft * with doubts and|
w: will be the|clear- er As we|muse * on cloud- y|
 [FA]3 [Ac]<[GB][FA]/ x/ | G4 ||"^Refrain" G>G | [Ec]3 [Fd]<[Ge][Gc]/ | (B>c) [Gd]2 [Gd]>[GB] | %20
w: sin? * * *|||||
w: fears? Yes, we sure-|ly|re- mem-|His grace we’ll free-|ly * own, For the|
w: days. * * *|||||
 [FA]3 [GB]<[Ac][Bd]/ | [GB]4 [=FG]>[FG] | [Ec]3 [Fd]<[Ge][Gc]/ | (B>c) [Gd]2 [Gd]>[GB] | %24
w: ||||
w: so strong and ten-|der, That re-|deemed and brought us|home. * * * *|
w: ||||
 [FA]3 [Fc]<[GB][DA]/ | [DG]4 |] %26
w: ||
w: ||
w: ||
V:2
 x2 | x6 | x4 GB3/4 x/4 | x6 | x6 | x6 | x6 | x6 | x6 | x6 | x4 B,B3/4 x/4 | x6 | x6 | x6 | x6 | %15
w: ||strong e-||||||||hung so|||||
w: ||flic- tion||||||||griefs and|||||
w: ||griev- ings||||||||wea- ry|||||
 x6 | G4 || G>G | x11/2 | G2 x4 | x11/2 | x6 | x11/2 | G2 x4 | x11/2 | x4 |] %26
w: |||||||||||
w: |shall|ber, And||love|||||||
w: |||||||||||
V:3
 z2 | ([G,,G,]2 [G,,G,]2) [G,,G,]2 | [G,,G,]2 [G,,G,]2 [G,,G,]2 | [G,,G,]2 [G,B,D]2 [G,B,D]2 | %4
 ([G,,G,]2 [G,B,D]2) [G,B,D]2 | ([D,,D,]2 [D,F,A,D]2) [D,F,A,D]2 | [D,,D,]2 [D,F,A,D]2 z2 | %7
 ([G,,G,]2 [G,B,]2) [G,B,D]2 | ([G,,G,]2 [D,F,A,D]2) z2 | ([G,,G,]2 [G,,G,]2) [G,,G,]2 | %10
 [G,,D,G,]4 z2 | ([G,,G,]2 [G,B,D]2) [G,B,D]2 | ([G,,G,]2 [G,B,D]2) [G,B,D]2 | %13
 ([C,C]2 [CE]2) [CE]2 | [G,,G,]2 [G,B,D]2 [G,B,D]2 | ([D,,D,]2 [D,F,A,C]2) [D,F,A,C]2 | %16
 [G,,G,B,]4 || G,>G, | [C,G,]3 [C,G,]<[C,C][C,E]/ | (D>C) [G,B,]2 [G,B,]>[G,D] | %20
 [D,D]3 [D,D]<[D,D][D,D]/ | [G,D]4 [G,B,]>[G,B,] | [C,G,]3 [C,G,]<[C,C][C,E]/ | %23
 (D>C) [G,B,]2 [G,B,]>[G,D] | [D,C]3 [D,A,]<[D,D][D,C]/ | [G,,B,]4 |] %26
V:4
 x2 | x6 | x6 | x6 | x6 | x6 | x6 | x6 | x6 | x6 | x6 | x6 | x6 | x6 | x6 | x6 | x4 || G,>G, | %18
 x11/2 | G,2 x4 | x11/2 | x6 | x11/2 | G,2 x4 | x11/2 | x4 |] %26

